icons/glyphs/glyph-proj-manage.svg

<?xml version="1.0" encoding="UTF-8" standalone="no"?><svg height="16" viewBox="0 0 4.2333333 4.2333333" width="16" xmlns="http://www.w3.org/2000/svg"><sodipodi:namedview/><metadata><rdf:RDF><cc:Work><dc:format>image/svg+xml</dc:format><dc:type/><dc:title/></cc:Work></rdf:RDF></metadata><path d="m-.02428792-.00000006v.49661051 3.73672295h4.23333322v-3.73672295-.49661051h-.8387085v.49661051h-.8583455v-.49661051h-.8392252v.49661051h-.85834554v-.49661051zm.49506022 1.21801346h.35501709v.2382284h.93637691v-.2382284h.3545003v.403593.3545003.4041097h.3550171v.2382283h.9363769v-.2382283h.3545004v.4035929.3545004.4041095h-.3545004v-.2392619h-.9363769v.2392619h-.3550171v-.4041095-.3545004-.4035929h-.3545003v-.2392619h-.93637691v.2392619h-.35501709v-.4041097-.3545003z" fill="#d0d0d0"/></svg>

<?xml version="1.0" encoding="UTF-8" standalone="no"?>
<!-- Created with Inkscape (http://www.inkscape.org/) -->

<svg
     xmlns:dc="http://purl.org/dc/elements/1.1/"
     xmlns:cc="http://creativecommons.org/ns#"
     xmlns:rdf="http://www.w3.org/1999/02/22-rdf-syntax-ns#"
     xmlns:svg="http://www.w3.org/2000/svg"
     xmlns="http://www.w3.org/2000/svg"
     xmlns:sodipodi="http://sodipodi.sourceforge.net/DTD/sodipodi-0.dtd"
     xmlns:inkscape="http://www.inkscape.org/namespaces/inkscape"
     width="16"
     height="16"
     viewBox="0 0 4.2333333 4.2333333"
     version="1.1"
     id="svg8"
     inkscape:version="0.92+devel (78cebbf91a, 2017-07-21, custom)"
     sodipodi:docname="glyph-proj-manage.svg">
    <defs
         id="defs2" />
    <sodipodi:namedview
         id="base"
         pagecolor="#002466"
         bordercolor="#ffffff"
         borderopacity="0.38039216"
         inkscape:pageopacity="1"
         inkscape:pageshadow="2"
         inkscape:zoom="26.8125"
         inkscape:cx="13.287092"
         inkscape:cy="7.6398966"
         inkscape:document-units="px"
         inkscape:current-layer="svg8"
         inkscape:document-rotation="0"
         showgrid="false"
         inkscape:showpageshadow="false"
         borderlayer="true"
         inkscape:window-width="1920"
         inkscape:window-height="1051"
         inkscape:window-x="0"
         inkscape:window-y="0"
         inkscape:window-maximized="1"
         units="px" />
    <metadata
         id="metadata5">
        <rdf:RDF>
            <cc:Work
                 rdf:about="">
                <dc:format>image/svg+xml</dc:format>
                <dc:type
                     rdf:resource="http://purl.org/dc/dcmitype/StillImage" />
                <dc:title></dc:title>
            </cc:Work>
        </rdf:RDF>
    </metadata>
    <path
         style="fill:#d0d0d0;stroke:none;stroke-width:0.34395832;stroke-opacity:1"
         d="M -0.02428792,-5.6145833e-8 V 0.49661045 4.2333334 H 4.2090453 V 0.49661045 -5.6145833e-8 H 3.3703368 V 0.49661045 H 2.5119913 V -5.6145833e-8 H 1.6727661 V 0.49661045 H 0.81442056 V -5.6145833e-8 Z M 0.4707723,1.2180134 H 0.82578939 V 1.4562418 H 1.7621663 V 1.2180134 h 0.3545003 v 0.403593 0.3545003 0.4041097 H 2.4716837 V 2.6184447 H 3.4080606 V 2.3802164 H 3.762561 V 2.7838093 3.1383097 3.5424192 H 3.4080606 V 3.3031573 H 2.4716837 V 3.5424192 H 2.1166666 V 3.1383097 2.7838093 2.3802164 H 1.7621663 V 2.1409545 H 0.82578939 V 2.3802164 H 0.4707723 V 1.9761067 1.6216064 Z"
         id="rect811"
         inkscape:connector-curvature="0" />
</svg>
